!!!ONB: MCCC : IJH0418_04 : Extracted Monophonic Melody
!!!COM: Haydn, Joseph
!!!OPR: String Quartet in C major
!!!OMV: 4
!!!SCT: Hob.III:39 ; Op.33 No.3
!!!ODT: 1781///
**kern
*thru
*k[]
*C:
*clefF
*M2/4
8gg
8ee
8gg
8ee
=1
16gg
16ff
16ee
16ff
8gg
8ee
=2
16gg
16ff
16ee
16ff
16gg
16ff
16ee
16ff
=3
16gg
16ff
16ee
16ff
8gg
8ee
=4
8aa
8aa
8gg
16ff
16gg
=5
8ff
8ff
8gg
16ff
16gg
=6
8ee
8ee
8ff
16ee
16dd
=7
4cc
8b
8r
=8
8gg
8r
8gg
8r
=9
4gg
4r
=10
8gg
8r
8gg
8r
=11
4gg
4r
=12
8gg
8gg
8gg
8gg
=13
4gg
4r
=14
8ccc
8r
8ccc
8r
=15
4ccc
4r
=16
8ccc
8ccc
8ccc
8ccc
=17
4ccc
4r
=18
16aa
16bb
16ccc
16aa
8gg
8gg
=19
16ff
16gg
16aa
16ff
8ee
8ee
=20
16dd
16ee
16ff
16dd
16b
16cc
16dd
16b
=21
4cc
4r
=22
4.a
8g#
=23
8a
8g#
8a
8b
=24
16cc
16dd
16cc
16b
8a
8b
=25
16cc
16dd
16cc
16b
8a
8cc
=26
4.ee
8dd#
=27
8ee
8dd#
8ee
8ff#
=28
16gg
16aa
16gg
16ff#
8ee
8ff#
=29
16gg
16aa
16gg
16ff#
8ee
8ee
=30
4.ff
8ee
=31
8ff
8ff
8aa
8ccc
=32
2ee[
=33
8ee]
16dd#
16ee
8ff#
8dd#
=34
4ee
4ee[
=35
8ee]
8dd
8cc
8b
=36
8ee
8gg
8ff
8dd
=37
4cc
4r
=38
2r
=39
8aa
8ff
8aa
8ff
=40
16aa
16gg
16ff
16gg
8aa
8ff
=41
2ddd[
=42
8ddd]
8ddd
8ddd
8ddd
=43
2ddd[
=44
8ddd]
8ccc
8ccc
8ccc
=45
8ccc
8aa
8ccc
8aa
=46
16ccc
16bb
16aa
16bb
8ccc
8aa
=47
8bb
8gg
8bb
8gg
=48
16bb
16aa
16gg
16aa
8bb
8gg
=49
2ccc#[
=50
8ccc#]
8ccc#
8ccc#
8ccc#
=51
8ddd
8dd
16ccc
16bb
16aa
16ccc
=52
8bb
8gg
16aa
16gg
16ff#
16aa
=53
8gg
8bb
16aa
16bb
16ccc
16aa
=54
8bb
8ddd
16ff#
16gg
16aa
16ff#
=55
16gg
16aa
16bb
16gg
16ff#
16gg
16aa
16ff#
=56
16ee
16ff#
16gg
16ee
16dd
16ee
16ff#
16dd
=57
16cc
16dd
16ee
16cc
16b
16cc
16dd
16b
=58
16a
16b
16cc
16a
16g
16a
16b
16g
=59
8f#
8r
8g
8r
=60
8a
8r
8b
8r
=61
8cc
8ccc
8bb
8bb
=62
16aa
16bb
16ccc
16aa
16ff#
16gg
16aa
16ff#
=63
4gg
4r
=64
8dd
8b
8dd
8b
=65
2r
=66
8ddd
8bb
8ddd
8bb
=67
2r
=68
8gg
8b
8gg
8b
=69
4r
8gg
8b
=70
4r
8gg
8b
=71
2r
=72
8gg
8ee
8gg
8ee
=73
16gg
16ff
16ee
16ff
8gg
8ee
=74
16gg
16ff
16ee
16ff
16gg
16ff
16ee
16ff
=75
16gg
16ff
16ee
16ff
8gg
8ee
=76
8aa
8aa
8gg
16ff
16gg
=77
8ff
8ff
8gg
16ff
16gg
=78
8ee
8ee
8ff
16ee
16dd
=79
4cc
8b
8r
=80
8gg
8r
8gg
8r
=81
4gg
4r
=82
8gg
8r
8gg
8r
=83
4gg
4r
=84
8gg
8gg
8gg
8gg
=85
4gg
4r
=86
8ccc
8r
8ccc
8r
=87
4ccc
4r
=88
8ccc
8ccc
8ccc
8ccc
=89
4ccc
4r
=90
16aa
16bb
16ccc
16aa
8gg
8gg
=91
16ff
16gg
16aa
16ff
8ee
8ee
=92
16dd
16ee
16ff
16dd
16b
16cc
16dd
16b
=93
4.cc
8b
=94
8cc
8b
8cc
8dd
=95
16ee-
16ff
16ee-
16dd
8cc
8dd
=96
16ee-
16ff
16ee-
16dd
8cc
8ee-
=97
4.gg
8ff#
=98
8gg
8ff#
8gg
8aa
=99
16bb-
16ccc
16bb-
16aa
8gg
8aa
=100
16bb-
16ccc
16bb-
16aa
8gg
8gg
=101
2aa-[
=102
8aa-]
8aa-
8bb-
8ccc
=103
8ccc
8bb-
8fff
8eee-
=104
8ddd
8ccc
8bb-
8aa-
=105
8aa-
8gg
8aa-
8ff
=106
8ff
8ee-
8ee-
8dd
=107
2ee-[
=108
2ee-]
=109
2ee[
=110
2ee]
=111
2ff[
=112
2ff]
=113
2ff#[
=114
2ff#]
=115
16gg
16aa-
16gg
16ff#
8gg
8gg
=116
16gg
16aa-
16gg
16ff#
8gg
8gg
=117
16gg
16aa-
16gg
16ff#
8gg
8gg
=118
16gg
16aa-
16gg
16ff#
8gg
8gg
=119
16gg
16aa-
16gg
16ff#
8gg
8gg
=120
8gg
8gg
8gg
8gg
=121
8gg
8ff#
8gg
8ff#
=122
8gg
8ff#
8gg
8ff#
=123
8gg
8ff
8gg
8ff
=124
8gg
8ff
8gg
8ff
=125
8gg
8ee
8gg
8ee
=126
16gg
16ff
16ee
16ff
8gg
8ee
=127
16gg
16ff
16ee
16ff
16gg
16ff
16ee
16ff
=128
16gg
16ff
16ee
16ff
8gg
8ee
=129
8aa
8aa
8gg
16ff
16gg
=130
8ff
8ff
8gg
16ff
16gg
=131
8ee
8ee
8ff
16ee
16dd
=132
4cc
8b
8r
=133
8gg
8r
8gg
8r
=134
4gg
4r
=135
8gg
8r
8gg
8r
=136
4gg
4r
=137
8gg
8gg
8gg
8gg
=138
4gg
4r
=139
8ccc
8r
8ccc
8r
=140
4ccc
4r
=141
8ccc
8ccc
8ccc
8ccc
=142
4ccc
4r
=143
16aa
16bb
16ccc
16aa
8gg
8gg
=144
16ff
16gg
16aa
16ff
8ee
8ee
=145
16dd
16ee
16ff
16dd
16b
16cc
16dd
16b
=146
4cc
4r
=147
8gg
8ee
4r
=148
8ee
8gg
4r
=149
16gg
16ff
16ee
16ff
8gg
8ee
=150
2r
=151
16ee
16ff
16gg
16ff
8ee
8gg
=152
2r
=153
16gg
16ff
16ee
16ff
16gg
16ff
16ee
16ff
=154
16gg
16ff
16ee
16ff
16gg
16ff
16ee
16ff
=155
16gg
16ff
16ee
16ff
16gg
16ff
16gg
16aa
=156
4bb-
4r
=157
2aa[
=158
8aa]
16bb
16ccc
16bb
16aa
16gg
16ff
=159
8ee
16ff#
16gg
16ff#
16gg
16ff#
16gg
=160
8gg
16aa
16gg
16ff
16ee
16dd
16cc
=161
8g
8r
8bb
8r
=162
4ccc
4r
=163
8f
8d
8f
8d
=164
16e
16f
16g
16f
8e
8g
=165
8f
8d
8f
8d
=166
8e
8gg
8gg
8gg
=167
8gg
8gg
8gg
8gg
=168
8gg
8gg
8gg
8gg
=169
8gg
8gg
8gg
8gg
=170
4gg
4r
==
*-
